X:1
T:Title
L:1/8
Q:1/4=100
M:4/4
K:F
V:1 treble nm="Grand Piano"
V:1
 A/A/A AA A/A/A B/B/c | c B3- B4 | GG/G/ GG GG A/A/B | B2 A>B c4 | F/F/F FF F/F/F GA | AB B6 | %6
w: ????~???? * * * * * * * * * *||||||
 c/c/c c/c/e cB BA/A/ | Bc c6 | A/A/A AA A/A/A Bc | c B3- B4 | GG/G/ GG GG A/A/B | B2 A>B c4 | %12
w: ||||||
 F/F/F FF F/F/F GA | AB B6 | c/c/c c/c/e c/c/B BA | Bc c6 | A/A/A AA- A G3 | E/E/E FE- E C2 D | %18
w: ||||||
 D8 |] %19
w: |

